src/next/cmd/sc_selecttables.svg

<svg height="16" viewBox="0 0 4.2333333 4.2333335" width="16" xmlns="http://www.w3.org/2000/svg" xmlns:xlink="http://www.w3.org/1999/xlink"><linearGradient id="a" gradientTransform="matrix(-.51583695 0 0 -1.0923589 20.376509 323.07617)" gradientUnits="userSpaceOnUse" x1="-5.580285" x2="41.94849" y1="297.74185" y2="264.27243"><stop offset="0" stop-color="#cccdcf"/><stop offset=".11366145" stop-color="#e0e0e1"/><stop offset=".20296694" stop-color="#f2f2f2"/><stop offset=".21468808" stop-color="#fafafa"/><stop offset=".21468808" stop-color="#fff"/><stop offset=".63157898" stop-color="#fafafa"/><stop offset=".8449" stop-color="#ebecec"/><stop offset="1" stop-color="#e1e2e3"/></linearGradient><linearGradient id="b" gradientTransform="matrix(.18247126 0 0 .4036017 .328448 -6.909548)" gradientUnits="userSpaceOnUse" x1="56" x2="56.200001" y1="35.741943" y2="30.230833"><stop offset="0" stop-color="#1f620a"/><stop offset="1" stop-color="#3d9c10" stop-opacity=".94902"/></linearGradient><linearGradient id="c" gradientUnits="userSpaceOnUse" x1="-24.836695" x2="-24.836695" y1="-32.245025" y2="5.854973"><stop offset="0" stop-color="#fff"/><stop offset="1" stop-color="#555"/></linearGradient><linearGradient id="d" gradientTransform="matrix(2.5034278 0 0 .82828144 -149.49959 -31.320578)" gradientUnits="userSpaceOnUse" x1="46.048" x2="46.048" y1="128.01709" y2="16.6203"><stop offset="0" stop-color="#f2fdeb"/><stop offset="1" stop-color="#c8ffa5"/></linearGradient><linearGradient id="e" gradientUnits="userSpaceOnUse" x1="7.214387" x2="7.214387" y1="23.290541" y2="-44.455515"><stop offset="0" stop-color="#5ca524"/><stop offset="1" stop-color="#58a11e" stop-opacity=".986274"/></linearGradient><filter id="f" color-interpolation-filters="sRGB" height="1.306617" width="1.43589" x="-.217945" y="-.153309"><feGaussianBlur stdDeviation="3.1542391"/></filter><linearGradient id="g" gradientUnits="userSpaceOnUse" x1="32.81356" x2="28.745762" y1="44.474575" y2="19.254236"><stop offset="0" stop-color="#070707"/><stop offset="1" stop-color="#474747"/></linearGradient><filter id="h" color-interpolation-filters="sRGB" height="1.0264" width="1.022" x="-.011" y="-.0132"><feGaussianBlur stdDeviation=".1200918"/></filter><filter id="i" color-interpolation-filters="sRGB" height="1.132" width="1.11" x="-.055" y="-.066"><feGaussianBlur stdDeviation=".600459"/></filter><filter id="j" color-interpolation-filters="sRGB" height="1.0528" width="1.044" x="-.022" y="-.0264"><feGaussianBlur stdDeviation=".2401836"/></filter><g transform="scale(.125)"><path d="m1.7325692 267.06621h30.4015288v30.2342h-30.4015288z" fill="#313131" filter="url(#j)" transform="matrix(-.67806705 0 0 -.81904917 23.399797 245.19869)"/><path d="m1.8599554 267.24631h30.1467556v29.874h-30.1467556z" fill="#949494" filter="url(#h)" transform="matrix(-.70212045 0 0 -.84543034 23.530912 252.39647)"/><path d="m2.4287318 267.39798h29.0092052v29.57064h-29.0092052z" fill="#a4a4a4" filter="url(#i)" transform="matrix(-.72965325 0 0 -.86935025 23.997131 258.92083)"/><path d="m21.166666 25.4h-19.049994v-23.28333h19.049994z" fill="#f8f8f8" opacity=".99" stroke-width=".710705"/><path d="m18.738726 24.34167h-14.1941142v-20.10834h14.1941142z" fill="url(#a)" opacity=".99" stroke-width=".7256"/><path d="m40 8v20h-32v4h32v20h-32v4h32v20h-36v4h36v16h4v-16h36v-4h-36v-20h36v-4h-36v-20h36v-4h-36v-20z" fill="url(#c)" stroke-width="3.398301" transform="scale(.26458334)"/><path d="m1.0583333 1.0583347h21.1666657v6.4576272h-21.1666657z" fill="url(#b)" stroke-width=".271377"/><path d="m0-.00000032v1.05833332l-.00000016 24.341667v1.058333 1.058333h2.11666696l19.8437512.000001h1.322916v-2.116666l.000001-23.2833346v-2.1166662h-2.116668l-19.05-.00000052zm2.116667 2.11666672h19.05v23.2833346l-19.0500002-.000001z" fill="url(#e)" stroke-width=".264583"/><path d="m2.116667 2.1166664h19.05v23.2833346l-19.0500002-.000001z" fill="url(#d)" opacity=".5" stroke-width="2.116667"/></g><g transform="matrix(.04960938 0 0 .04960938 1.228085 1.102508)"><path d="m22.708984 3.9453125c-3.643939.037094-6.935512 3.3597782-6.935546 7.0039065v43.93164c.000478 4.147308 4.37543 7.703362 8.435546 6.857422l9.992188-2.080078 2.375 1.714844c1.876701 1.356544 5.885119 3.607037 8.047558 2.778906.01858-.0069 1.255573-.463996 2.644531-1.242187.617506-.345969 1.597838-.928014 2.550781-1.839844.431928-.413294 1.210343-1.264146 1.753907-2.351563.691831-1.384039-.303632-5.000467-.844433-7.163671-.0036-.01429-.05031-.245884-.05859-.283204l6.132812-4.144531c3.40028-2.297728 3.941244-7.821553 1.052735-10.736328l-.002-.002-30.099567-30.3710469c-1.314483-1.3259965-3.177893-2.0906385-5.044922-2.0722656z" filter="url(#f)" opacity=".76"/><path d="m17.03125 7.3398438c-2.671376.0271922-5.082006 2.4632515-5.082031 5.1347652v43.931641c.000351 3.040395 3.205165 5.647504 6.18164 5.027344l10.800782-2.248047 4.670087 5.587096c1.376447.994944 3.261915 1.239033 4.847657.63086h.002c.01282-.0048 1.149662-.428397 2.396484-1.126953.577508-.32356 1.382234-.803021 2.171875-1.558594.368036-.352159.950562-.988787 1.375-1.837891.513582-1.027443-.77469-5.741835-1.175947-7.346862-.03825-.153003-.209942-.997624-.332031-1.582031l7.173828-4.847656c2.493301-1.684843 2.890644-5.734647.771484-7.871094l-30.101609-30.373047c-.963649-.9720894-2.328545-1.5330004-3.697266-1.5195312h-.002z" fill="#fff" transform="translate(5.694915 -3.525424)"/><path d="m23.737884 11.281217v40.419921l11.863281-2.470703c.263538-.05442.537815.0044.755859.16211l6.527477 6.654892c.285679-.118453.599894-.234307 1.154297-.544922.384975-.215689.749087-.464247.9375-.644531.06051-.0579.06738-.07382.08789-.101562-.320785-1.338154-3.156382-8.467393-3.156382-8.467393-.07594-.378615.08265-.765836.402343-.982422l9.074219-6.130859z" fill="url(#g)"/></g></svg>

<?xml version="1.0" encoding="UTF-8" standalone="no"?>
<svg
   xmlns:dc="http://purl.org/dc/elements/1.1/"
   xmlns:cc="http://creativecommons.org/ns#"
   xmlns:rdf="http://www.w3.org/1999/02/22-rdf-syntax-ns#"
   xmlns:svg="http://www.w3.org/2000/svg"
   xmlns="http://www.w3.org/2000/svg"
   xmlns:xlink="http://www.w3.org/1999/xlink"
   xmlns:sodipodi="http://sodipodi.sourceforge.net/DTD/sodipodi-0.dtd"
   xmlns:inkscape="http://www.inkscape.org/namespaces/inkscape"
   height="16"
   viewBox="0 0 4.2333333 4.2333335"
   width="16"
   version="1.1"
   id="svg78"
   sodipodi:docname="sc_selecttables.svg"
   inkscape:version="0.92.3 (2405546, 2018-03-11)"
   inkscape:export-filename="/home/rizmut/Dokumen/Rizmut/Github/libreoffice-style-karasa-jaga/build/next/cmd/sc_selecttables.png"
   inkscape:export-xdpi="96"
   inkscape:export-ydpi="96">
  <metadata
     id="metadata84">
    <rdf:RDF>
      <cc:Work
         rdf:about="">
        <dc:format>image/svg+xml</dc:format>
        <dc:type
           rdf:resource="http://purl.org/dc/dcmitype/StillImage" />
        <dc:title />
      </cc:Work>
    </rdf:RDF>
  </metadata>
  <defs
     id="defs82">
    <linearGradient
       gradientTransform="matrix(0.18247126,0,0,0.4036017,0.32844823,-6.9095476)"
       id="c-4"
       gradientUnits="userSpaceOnUse"
       x1="56"
       x2="60"
       y1="35.741943"
       y2="19.741945">
      <stop
         offset="0"
         stop-color="#1f620a"
         id="stop12-8" />
      <stop
         offset="1"
         stop-color="#3d9c10"
         stop-opacity=".94902"
         id="stop14-0" />
    </linearGradient>
    <linearGradient
       inkscape:collect="always"
       xlink:href="#a"
       id="linearGradient1061"
       gradientUnits="userSpaceOnUse"
       gradientTransform="matrix(-0.51583695,0,0,-1.0923589,20.376509,323.07617)"
       x1="-5.5802851"
       y1="297.74185"
       x2="41.94849"
       y2="264.27243" />
    <linearGradient
       inkscape:collect="always"
       xlink:href="#c-4"
       id="linearGradient1105"
       gradientUnits="userSpaceOnUse"
       gradientTransform="matrix(0.18247126,0,0,0.4036017,0.32844823,-6.9095476)"
       x1="56"
       y1="35.741943"
       x2="56.200001"
       y2="30.230833" />
    <linearGradient
       gradientTransform="matrix(0.26458334,0,0,0.26458334,-41.770028,-21.661694)"
       id="a-2"
       gradientUnits="userSpaceOnUse"
       x1="121.87097"
       x2="121.87097"
       y1="-34.455017"
       y2="101.92964">
      <stop
         offset="0"
         stop-color="#fff"
         id="stop2-9" />
      <stop
         offset="1"
         stop-color="#555"
         id="stop4-6" />
    </linearGradient>
    <linearGradient
       inkscape:collect="always"
       xlink:href="#a-2"
       id="linearGradient1126"
       x1="63.999996"
       y1="-39.999992"
       x2="63.999996"
       y2="104"
       gradientUnits="userSpaceOnUse" />
    <linearGradient
       id="e-2"
       gradientTransform="matrix(2.5034278,0,0,0.82828144,-138.91626,-22.853911)"
       gradientUnits="userSpaceOnUse"
       x1="46.048"
       x2="46.048"
       y1="128.01709"
       y2="16.6203">
      <stop
         offset="0"
         stop-color="#f2fdeb"
         id="stop20-9" />
      <stop
         offset="1"
         stop-color="#c8ffa5"
         id="stop22-1" />
    </linearGradient>
    <linearGradient
       gradientTransform="matrix(0.26458334,0,0,0.26458334,0,-6.3500001)"
       id="f-7"
       gradientUnits="userSpaceOnUse"
       x1="67.266975"
       x2="67.266975"
       y1="144.02724"
       y2="-112.02084">
      <stop
         offset="0"
         stop-color="#5ca524"
         id="stop25" />
      <stop
         offset="1"
         stop-color="#58a11e"
         stop-opacity=".986274"
         id="stop27" />
    </linearGradient>
    <linearGradient
       gradientTransform="matrix(0.26458334,0,0,0.26458334,-1.1666677e-8,-6.3500002)"
       id="f-7-6"
       gradientUnits="userSpaceOnUse"
       x1="67.266975"
       x2="67.266975"
       y1="144.02724"
       y2="-112.02084">
      <stop
         offset="0"
         stop-color="#5ca524"
         id="stop25-7" />
      <stop
         offset="1"
         stop-color="#58a11e"
         stop-opacity=".986274"
         id="stop27-5" />
    </linearGradient>
    <linearGradient
       id="e-2-3"
       gradientTransform="matrix(2.5034278,0,0,0.82828144,-138.91626,-22.853911)"
       gradientUnits="userSpaceOnUse"
       x1="46.048"
       x2="46.048"
       y1="128.01709"
       y2="16.6203">
      <stop
         offset="0"
         stop-color="#f2fdeb"
         id="stop20-9-5" />
      <stop
         offset="1"
         stop-color="#c8ffa5"
         id="stop22-1-6" />
    </linearGradient>
    <linearGradient
       id="e-2-3-2"
       gradientTransform="matrix(2.5034278,0,0,0.82828144,-149.49959,-31.320578)"
       gradientUnits="userSpaceOnUse"
       x1="46.048"
       x2="46.048"
       y1="128.01709"
       y2="16.6203">
      <stop
         offset="0"
         stop-color="#f2fdeb"
         id="stop20-9-5-9" />
      <stop
         offset="1"
         stop-color="#c8ffa5"
         id="stop22-1-6-1" />
    </linearGradient>
    <linearGradient
       gradientTransform="matrix(0.26458334,0,0,0.26458334,-10.583334,-14.816667)"
       id="f-7-6-2"
       gradientUnits="userSpaceOnUse"
       x1="67.266975"
       x2="67.266975"
       y1="144.02724"
       y2="-112.02084">
      <stop
         offset="0"
         stop-color="#5ca524"
         id="stop25-7-7" />
      <stop
         offset="1"
         stop-color="#58a11e"
         stop-opacity=".986274"
         id="stop27-5-0" />
    </linearGradient>
    <filter
       id="h"
       height="1.306617"
       width="1.43589"
       x="-0.21794499"
       y="-0.153309"
       style="color-interpolation-filters:sRGB">
      <feGaussianBlur
         stdDeviation="3.1542391"
         id="feGaussianBlur25-9" />
    </filter>
    <linearGradient
       id="i"
       gradientUnits="userSpaceOnUse"
       x1="32.81356"
       x2="28.745762"
       y1="44.474575"
       y2="19.254236">
      <stop
         offset="0"
         stop-color="#070707"
         id="stop28" />
      <stop
         offset="1"
         stop-color="#474747"
         id="stop30" />
    </linearGradient>
  </defs>
  <sodipodi:namedview
     pagecolor="#ffffff"
     bordercolor="#666666"
     borderopacity="1"
     objecttolerance="10"
     gridtolerance="10"
     guidetolerance="10"
     inkscape:pageopacity="0"
     inkscape:pageshadow="2"
     inkscape:window-width="1366"
     inkscape:window-height="714"
     id="namedview80"
     showgrid="true"
     inkscape:zoom="20.85965"
     inkscape:cx="4.072795"
     inkscape:cy="6.5014052"
     inkscape:window-x="0"
     inkscape:window-y="28"
     inkscape:window-maximized="1"
     inkscape:current-layer="g876">
    <inkscape:grid
       type="xygrid"
       id="grid891"
       spacingx="0.13229167"
       spacingy="0.13229167"
       empspacing="2" />
  </sodipodi:namedview>
  <linearGradient
     id="a"
     gradientTransform="matrix(-0.51583695,0,0,-1.0923589,20.376509,586.20949)"
     gradientUnits="userSpaceOnUse"
     x1="-5.5802851"
     x2="41.94849"
     y1="297.74185"
     y2="264.27243">
    <stop
       offset="0"
       stop-color="#cccdcf"
       id="stop2" />
    <stop
       offset=".11366145"
       stop-color="#e0e0e1"
       id="stop4" />
    <stop
       offset=".20296694"
       stop-color="#f2f2f2"
       id="stop6" />
    <stop
       offset=".21468808"
       stop-color="#fafafa"
       id="stop8" />
    <stop
       offset=".21468808"
       stop-color="#fff"
       id="stop10" />
    <stop
       offset=".63157898"
       stop-color="#fafafa"
       id="stop12" />
    <stop
       offset=".8449"
       stop-color="#ebecec"
       id="stop14" />
    <stop
       offset="1"
       stop-color="#e1e2e3"
       id="stop16" />
  </linearGradient>
  <filter
     id="b"
     height="1.0264"
     width="1.022"
     x="-0.011"
     y="-0.0132"
     style="color-interpolation-filters:sRGB">
    <feGaussianBlur
       stdDeviation=".1200918"
       id="feGaussianBlur19" />
  </filter>
  <filter
     id="c"
     height="1.132"
     width="1.11"
     x="-0.055"
     y="-0.066"
     style="color-interpolation-filters:sRGB">
    <feGaussianBlur
       stdDeviation=".600459"
       id="feGaussianBlur22" />
  </filter>
  <filter
     id="d"
     height="1.0528001"
     width="1.044"
     x="-0.022"
     y="-0.0264"
     style="color-interpolation-filters:sRGB">
    <feGaussianBlur
       stdDeviation=".2401836"
       id="feGaussianBlur25" />
  </filter>
  <g
     id="g876"
     transform="scale(0.125)">
    <g
       id="g1103">
      <path
         style="fill:#313131;filter:url(#d)"
         inkscape:connector-curvature="0"
         id="path28"
         transform="matrix(-0.67806705,0,0,-0.81904917,23.399797,245.19869)"
         d="M 1.7325692,267.06621 H 32.134098 v 30.2342 H 1.7325692 Z" />
      <path
         style="fill:#949494;filter:url(#b)"
         inkscape:connector-curvature="0"
         id="path30"
         transform="matrix(-0.70212045,0,0,-0.84543034,23.530912,252.39647)"
         d="M 1.8599554,267.24631 H 32.006711 v 29.874 H 1.8599554 Z" />
      <path
         style="fill:#a4a4a4;filter:url(#c)"
         inkscape:connector-curvature="0"
         id="path32"
         transform="matrix(-0.72965325,0,0,-0.86935025,23.997131,258.92083)"
         d="M 2.4287318,267.39798 H 31.437937 v 29.57064 H 2.4287318 Z" />
      <path
         style="opacity:0.98999999;fill:#f8f8f8;stroke-width:0.71070546"
         inkscape:connector-curvature="0"
         id="path34"
         d="M 21.166666,25.4 H 2.116672 V 2.11667 h 19.049994 z" />
      <path
         inkscape:connector-curvature="0"
         style="opacity:0.98999999;fill:url(#linearGradient1061);stroke-width:0.72559959"
         id="path36"
         d="M 18.738726,24.34167 H 4.5446118 V 4.23333 H 18.738726 Z" />
      <g
         style="fill:#cacaca"
         id="g62"
         transform="translate(0,-263.13332)">
        <path
           id="path42"
           transform="matrix(0.26458334,0,0,0.26458334,0,263.13332)"
           d="M 40,8 V 28 H 8 v 4 H 40 V 52 H 8 v 4 H 40 V 76 H 4 v 4 h 36 v 16 h 4 V 80 H 80 V 76 H 44 V 56 H 80 V 52 H 44 V 32 H 80 V 28 H 44 V 8 Z"
           style="fill:url(#linearGradient1126);fill-opacity:1;stroke-width:3.39830065"
           inkscape:connector-curvature="0" />
      </g>
      <path
         inkscape:connector-curvature="0"
         style="fill:url(#linearGradient1105);stroke-width:0.27137744"
         d="M 1.0583333,1.0583347 H 22.224999 V 7.5159619 H 1.0583333 Z"
         id="path42-4" />
      <path
         style="fill:url(#f-7-6-2);stroke-width:0.26458335"
         d="M 0,-3.2000003e-7 V 1.058333 L -1.5999998e-7,25.4 v 1.058333 1.058333 H 2.1166668 l 19.8437512,1e-6 h 1.322916 v -2.116666 l 1e-6,-23.2833346 V 1.9999994e-7 h -2.116668 l -19.05,-5.1999997e-7 z M 2.116667,2.1166664 h 19.05 l 0,23.2833346 L 2.1166668,25.4 Z"
         id="path44"
         inkscape:connector-curvature="0"
         sodipodi:nodetypes="ccccccccccccccccccc" />
      <path
         d="m 2.116667,2.1166664 h 19.05 l 0,23.2833346 L 2.1166668,25.4 Z"
         id="path42-3"
         style="opacity:0.5;fill:url(#e-2-3-2);stroke-width:2.11666679"
         inkscape:connector-curvature="0"
         sodipodi:nodetypes="ccccc" />
    </g>
    <g
       id="g83"
       transform="matrix(0.39687501,0,0,0.39687501,9.8246766,8.8200668)">
      <path
         id="path77"
         d="m 22.708984,3.9453125 c -3.643939,0.037094 -6.935512,3.3597782 -6.935546,7.0039065 v 43.93164 c 4.78e-4,4.147308 4.37543,7.703362 8.435546,6.857422 l 9.992188,-2.080078 2.375,1.714844 c 1.876701,1.356544 5.885119,3.607037 8.047558,2.778906 0.01858,-0.0069 1.255573,-0.463996 2.644531,-1.242187 0.617506,-0.345969 1.597838,-0.928014 2.550781,-1.839844 0.431928,-0.413294 1.210343,-1.264146 1.753907,-2.351563 0.691831,-1.384039 -0.303632,-5.000467 -0.844433,-7.163671 -0.0036,-0.01429 -0.05031,-0.245884 -0.05859,-0.283204 l 6.132812,-4.144531 c 3.40028,-2.297728 3.941244,-7.821553 1.052735,-10.736328 l -0.002,-0.002 L 27.753906,6.0175781 C 26.439423,4.6915816 24.576013,3.9269396 22.708984,3.9453125 Z"
         inkscape:connector-curvature="0"
         style="opacity:0.76000001;filter:url(#h)" />
      <path
         id="path79"
         transform="translate(5.694915,-3.525424)"
         d="M 17.03125,7.3398438 C 14.359874,7.367036 11.949244,9.8030953 11.949219,12.474609 V 56.40625 c 3.51e-4,3.040395 3.205165,5.647504 6.18164,5.027344 l 10.800782,-2.248047 4.670087,5.587096 c 1.376447,0.994944 3.261915,1.239033 4.847657,0.63086 h 0.002 c 0.01282,-0.0048 1.149662,-0.428397 2.396484,-1.126953 0.577508,-0.32356 1.382234,-0.803021 2.171875,-1.558594 0.368036,-0.352159 0.950562,-0.988787 1.375,-1.837891 0.513582,-1.027443 -0.77469,-5.741835 -1.175947,-7.346862 -0.03825,-0.153003 -0.209942,-0.997624 -0.332031,-1.582031 l 7.173828,-4.847656 c 2.493301,-1.684843 2.890644,-5.734647 0.771484,-7.871094 L 20.730469,8.859375 C 19.76682,7.8872856 18.401924,7.3263746 17.033203,7.3398438 h -0.002 z"
         inkscape:connector-curvature="0"
         style="fill:#ffffff" />
      <path
         id="path81"
         d="m 23.737884,11.281217 v 40.419921 l 11.863281,-2.470703 c 0.263538,-0.05442 0.537815,0.0044 0.755859,0.16211 l 6.527477,6.654892 c 0.285679,-0.118453 0.599894,-0.234307 1.154297,-0.544922 0.384975,-0.215689 0.749087,-0.464247 0.9375,-0.644531 0.06051,-0.0579 0.06738,-0.07382 0.08789,-0.101562 -0.320785,-1.338154 -3.156382,-8.467393 -3.156382,-8.467393 -0.07594,-0.378615 0.08265,-0.765836 0.402343,-0.982422 l 9.074219,-6.130859 z"
         style="fill:url(#i)"
         inkscape:connector-curvature="0" />
    </g>
  </g>
</svg>
